docs/assets/openeuler.svg

<?xml version="1.0" encoding="UTF-8"?>
<svg width="0.75em" height="0.75em" viewBox="0 0 32 32" version="1.1" xmlns="http://www.w3.org/2000/svg" xmlns:xlink="http://www.w3.org/1999/xlink">
		<path d="M26.4617917,12.4766665 C25.811555,13.2647768 24.139708,13.5845261 22.8114075,13.1787831 C21.5440899,12.7914573 21.1355642,11.9029029 21.8220649,11.202628 C22.4836989,10.5282787 23.9637164,10.2371468 25.1972863,10.541879 C26.4859184,10.8600699 27.0858294,11.7202902 26.4617917,12.4766665 M20.6013725,10.8674367 C19.9076189,11.5451861 18.4191645,11.836743 17.3441203,11.5082102 C16.7459854,11.3254559 16.4160565,10.9446469 16.3984426,10.6265977 C16.384825,10.3816502 15.9987979,10.1571032 15.5736944,10.035692 C15.1457785,9.91314742 14.6512552,9.92462269 14.1553998,9.98242406 C14.0291417,9.99729942 13.763896,10.0521257 13.593973,10.1063853 C13.1380821,10.2517388 12.7428779,10.4157927 12.4139851,10.6774572 C12.0047193,11.0031566 11.8685441,11.5814536 11.8778692,11.796367 C11.8913387,12.0975575 12.1818952,12.3552553 12.6237245,12.5143507 C13.0581531,12.6706128 13.5985615,12.6990884 14.1367497,12.6176282 C14.7943872,12.4486158 15.5143397,12.4415323 16.1047777,12.6404371 C17.1860386,13.0046707 17.4592772,13.9367178 16.6410417,14.7357367 C15.7892065,15.5681898 14.1496271,15.8807138 13.0602253,15.4222696 C12.4564658,15.1682553 12.2439141,14.703861 12.2117945,14.2747424 C12.1864837,13.9398345 11.8725406,13.6715115 11.4456608,13.5040575 C11.0164128,13.3356119 10.5144887,13.341562 9.95320998,13.3876048 C9.87934972,13.3936966 9.54572042,13.4578731 9.3398294,13.509866 C9.05859796,13.580701 8.48088937,13.7359713 7.99554311,14.1929988 C7.61218025,14.5542574 7.44122114,14.8951155 7.34323418,15.1003953 C7.28728393,15.2181231 7.21890028,15.4850295 7.21593995,15.5764066 C7.20335854,15.9535322 7.42701155,16.294957 7.86336433,16.5141205 C8.29320439,16.7300256 8.86069984,16.7876853 9.4480295,16.7055167 C10.1786392,16.5163872 10.9453649,16.5360794 11.5383192,16.8129026 C12.628017,17.321923 12.7553113,18.5316433 11.7319248,19.531267 C10.6607291,20.5776418 8.83612909,20.9133998 7.7566444,20.2683762 C7.16517027,19.9150511 6.99347108,19.3822302 7.07695241,18.7614321 C7.07695241,18.7602987 7.07621233,18.7591654 7.07621233,18.7578904 C7.07621233,18.7546319 7.07428811,18.6094202 7.05415786,18.5316433 C7.05415786,18.5315017 7.03817208,18.4085321 6.95646694,18.2508533 C6.84678668,18.0394817 6.66502236,17.8639525 6.4185748,17.7279493 C5.99805979,17.4954688 5.44240567,17.4355424 4.86232881,17.518561 C4.13571558,17.7066988 3.42464408,17.6799231 2.9579479,17.4011165 C2.16221094,16.9253886 2.39992551,15.915848 3.42168375,15.1533799 C3.94891869,14.7598206 4.59131051,14.5014145 5.19699423,14.4005454 L5.19951051,14.398562 C5.77692307,14.2869261 6.37150554,14.0365951 6.83686957,13.6795867 C7.29379666,13.3288117 7.53195528,12.9471527 7.5526776,12.6167782 L7.55460181,12.6153615 C7.55682206,12.6079946 7.56200264,12.4375656 7.53003107,12.257078 C7.50960478,11.9718962 7.52455445,11.6899729 7.79542474,11.3822656 C7.9686041,11.1860526 8.34412208,10.9953647 8.75516404,10.921413 C9.0365435,10.8706951 9.39903602,10.8821704 9.60389093,10.8716868 C9.78136277,10.8626199 10.0911614,10.8280524 10.2002496,10.7967434 C10.6145479,10.6780239 10.8615875,10.5452791 11.1687219,10.3096818 C11.4823689,10.0689844 11.6768627,9.81638679 11.7109065,9.58617301 C11.7181593,9.53743852 11.7351812,9.31204151 11.7300006,9.28498253 C11.6253529,8.7449364 12.4114688,8.15233069 13.486217,7.96121783 C14.0307699,7.86459887 14.5442393,7.88981614 14.9326347,8.00811061 C14.9459562,8.01108568 14.9601658,8.01349407 14.9734873,8.01661081 C15.3667672,8.11365478 15.6167672,8.2945674 15.7117938,8.51599764 L15.7159383,8.517131 C15.7165303,8.52265614 15.7177145,8.52789793 15.7184545,8.53342306 C15.7338483,8.573374 15.7453936,8.61417497 15.7505741,8.65653431 C15.8438246,8.8938316 16.1141028,9.09741142 16.5528238,9.21301416 C16.9837,9.32649185 17.4968734,9.33456704 17.9934689,9.25509016 C18.5917518,9.1022282 19.2680394,9.07743595 19.8476722,9.22052267 C20.9055465,9.4817622 21.2702592,10.2139129 20.6013725,10.8674367 M18.0901237,22.8809131 C17.0306212,24.1722353 14.9144287,24.5452525 13.4976142,23.6987741 C12.1635411,22.9014552 12.0457199,21.3590937 13.1180998,20.261576 C14.1408942,19.2143512 15.9586854,18.8776015 17.2823974,19.4959912 C18.6813018,20.1492317 19.0958961,21.655184 18.0901237,22.8809131 M28.4816255,7.28644351 L15.7684841,0.261168689 C15.1382297,-0.0870562297 14.3618829,-0.0870562297 13.7317764,0.261168689 L1.01833905,7.28644351 C0.388084588,7.63466843 -1.4801655e-05,8.27827534 -1.4801655e-05,8.97458351 L-1.4801655e-05,23.0252748 C-1.4801655e-05,23.7218663 0.388084588,24.3651899 1.01833905,24.7135565 L13.7317764,31.738973 C14.3618829,32.0870562 15.1382297,32.0870562 15.7684841,31.738973 L28.4816255,24.7135565 C29.1118799,24.3651899 29.4999852,23.7218663 29.4999852,23.0252748 L29.4999852,8.97458351 C29.4999852,8.27827534 29.1118799,7.63466843 28.4816255,7.28644351" id="Fill-19" fill="#002FA7"></path>
</svg>

<svg xmlns="http://www.w3.org/2000/svg" width=".75em" height=".75em" viewBox="0 0 32 32"><path fill="#002fa7" d="M26.462 12.477c-.65.788-2.322 1.108-3.65.702-1.268-.388-1.676-1.276-.99-1.976.662-.675 2.142-.966 3.375-.661 1.289.318 1.889 1.178 1.265 1.935m-5.86-1.61c-.694.678-2.183.97-3.258.641-.598-.183-.928-.563-.946-.881-.013-.245-.4-.47-.824-.591-.428-.123-.923-.111-1.419-.054-.126.015-.391.07-.561.124-.456.146-.851.31-1.18.571-.41.326-.545.904-.536 1.12.013.3.304.558.746.717.434.157.975.185 1.513.104.657-.17 1.377-.176 1.968.022 1.081.365 1.354 1.297.536 2.096-.852.832-2.491 1.145-3.58.686-.605-.254-.817-.718-.85-1.147-.025-.335-.338-.603-.765-.77-.43-.17-.932-.163-1.493-.117-.074.006-.407.07-.613.122-.281.07-.86.226-1.344.683a2.9 2.9 0 0 0-.653.907 1.8 1.8 0 0 0-.127.476c-.013.378.211.719.647.938.43.216.998.274 1.585.192.73-.19 1.497-.17 2.09.107 1.09.509 1.217 1.719.194 2.718-1.071 1.047-2.896 1.382-3.975.737-.592-.353-.764-.886-.68-1.507v-.003c0-.003-.003-.149-.023-.226a1 1 0 0 0-.098-.281 1.3 1.3 0 0 0-.537-.523c-.42-.233-.977-.292-1.557-.21-.726.189-1.437.162-1.904-.117-.796-.476-.558-1.485.464-2.248a4.2 4.2 0 0 1 1.775-.752l.003-.002a4 4 0 0 0 1.637-.72c.457-.35.695-.732.716-1.062l.002-.002a1.7 1.7 0 0 0-.025-.358c-.02-.285-.005-.567.265-.875.174-.196.55-.387.96-.46.282-.051.644-.04.849-.05a4 4 0 0 0 .596-.075c.415-.119.662-.252.969-.487.313-.241.508-.494.542-.724.007-.049.024-.274.019-.301-.105-.54.681-1.133 1.756-1.324.545-.096 1.058-.071 1.447.047l.04.009c.394.097.644.278.739.499l.004.001.002.016q.024.06.033.124c.093.237.363.44.802.556.43.113.944.122 1.44.042.599-.153 1.275-.178 1.855-.034 1.058.26 1.422.993.753 1.646m-2.51 12.014c-1.06 1.291-3.177 1.664-4.593.818-1.334-.798-1.452-2.34-.38-3.437 1.023-1.048 2.84-1.384 4.164-.766 1.4.653 1.814 2.16.808 3.385M28.482 7.286 15.768.261a2.12 2.12 0 0 0-2.036 0L1.018 7.286A1.94 1.94 0 0 0 0 8.975v14.05c0 .697.388 1.34 1.018 1.689l12.714 7.025c.63.348 1.406.348 2.036 0l12.714-7.025a1.94 1.94 0 0 0 1.018-1.689V8.975c0-.697-.388-1.34-1.018-1.689"/></svg>
